X:7731
T:Jack Pine Trail
C:Andy De Jarlis
M:2/4
L:1/16
K:D
faab afde|fdab afdf|g2ga ge=cd|egga g2ed|!
faab afde|fdab afdB|=c2=cB =cAGB|AFE2 D4:|!
|:DFAc defd|ecB2 A2de|fdeg f2ec|dAFD E2E2|!
DFAc defd|ecB2 A2de|faab afde|fdec d4:|!
